src/components/icon/pin-slanted.svg

<svg xmlns="http://www.w3.org/2000/svg" width="16" height="16" viewBox="0 0 24 24">
<path d="M11.469487,14.5610167 L5.34748142,20.6830223 C4.92484448,21.1056592 4.23961463,21.1056592 3.8169777,20.6830223 C3.39434077,20.2603854 3.39434077,19.5751555 3.8169777,19.1525186 L9.93898326,13.030513 L7.26060176,10.3521315 C7.04928329,10.1408131 7.04928329,9.79819812 7.26060176,9.58687966 C7.40980426,9.43728508 7.56284613,9.31526242 7.71972735,9.22081169 C8.53488159,8.79772949 9.5023219,8.77722536 10.7042444,9.20424442 C11.4594215,8.94003436 13.1564258,7.89994079 14.3391908,6.71717588 L15.1044426,5.95192403 C15.9497165,5.10665016 16.1448003,4.34042991 16.0610074,3.84748142 C15.6383705,3.42484448 15.6383705,2.73961463 16.0610074,2.3169777 C16.4836444,1.89434077 17.1688742,1.89434077 17.5915112,2.3169777 L22.1830223,6.90848885 C22.6056592,7.33112578 22.6056592,8.01635563 22.1830223,8.43899257 C21.7603854,8.8616295 21.0751555,8.8616295 20.6525186,8.43899257 C20.1704529,8.31657282 19.3933498,8.55028353 18.548076,9.39555739 L17.7828241,10.1608092 C16.5975256,11.3461078 15.5579793,13.040846 15.2957556,13.7957556 C15.7130177,14.9802518 15.7125835,15.553807 15.2906436,16.7337766 C15.2205181,16.9092244 15.094677,17.0777649 14.9131203,17.2393982 C14.7018019,17.4507167 14.3591869,17.4507167 14.1478685,17.2393982 L11.469487,14.5610167 Z"/>
</svg>

<svg xmlns="http://www.w3.org/2000/svg" width="16" height="16" viewBox="0 0 24 24"><path d="M11.47 14.561l-6.123 6.122a1.082 1.082 0 0 1-1.53-1.53l6.122-6.122-2.678-2.679a.541.541 0 0 1 0-.765l.23-.23a.539.539 0 0 1 .229-.136c1.194-.443 1.782-.444 2.984-.017.755-.264 2.452-1.304 3.635-2.487l.765-.765c.846-.845 1.04-1.612.957-2.105a1.082 1.082 0 0 1 1.53-1.53l4.592 4.591a1.082 1.082 0 0 1-1.53 1.531c-.483-.122-1.26.111-2.105.957l-.765.765c-1.185 1.185-2.225 2.88-2.487 3.635.417 1.184.417 1.758-.005 2.938a.539.539 0 0 1-.148.276l-.23.23a.541.541 0 0 1-.765 0l-2.679-2.679z"/></svg>
